X: 04041
T: JEFFIE VII
C: Bob McQuillen 24 Sept 78
B: Bob's Note Book 04 #41
%R: reel
Z: 2020 John Chambers <jc:trillian.mit.edu>
M: C
L: 1/8
K: G
DE \
| G2GD E2DE | GABd e2de | gabg ageg | dgeg dcBA |
| G2GD E2DE | GBde d2ba | gabg ageg | dgga g2 :|
|: ga \
| b2bg afef | gage fdef | g2gd edBG | AGAB d2ga |
| b2bg afef | gage fdef | gagd edBG | AGAB G2 :|
%%begintext align
%% I promised Jeff Sieben a tune
%% and here it is, with love from Mac.
%%endtext

%%sep 1 1 500

%%sep 1 1 500

